X:122
T:Sheffield Hornpipe TS.122
M:C
L:1/8
Q:1/2=84
S:Thomas Sands’ MS,1810,Lincolnshire
R:.hornpipe
O:England;Lincolnshire
Z:vmp.Ruairidh Greig, 2011
K:A
f|e>dc>B A>EA>B|A>Bc>d e>cd>e|f>dB>a g>ef>g|a>gb>g”dot added”a3c|
d>e fg/a/ b>ge>c|d>ef>g a>fd>f|e>cB>A G>AB>c|d>fe>GA2z:|
|:A|GB”tr”B2Ac”tr”c2|B>cd>e d>cB>A|G>BA>c B>dc>e|d>cB>A G>BG>E|
a2 fg/a/ g2 ef/g/|f2de/f/ e>dc>e|d>cB>A G>AB>c|d>fe>GA2z:|]

